; generated by Slic3r 0.9.8 on 2013-03-23 at 12:18:03

; layer_height = 0.3
; perimeters = 3
; top_solid_layers = 3
; bottom_solid_layers = 3
; fill_density = 0.4
; perimeter_speed = 30
; infill_speed = 60
; travel_speed = 130
; scale = 1
; nozzle_diameter = 0.4
; filament_diameter = 3
; extrusion_multiplier = 1
; perimeters extrusion width = 0.42mm
; infill extrusion width = 0.42mm
; first layer extrusion width = 0.80mm

M190 P115 ; wait for bed temperature to be reached
M104 P235 ; set temperature
G40                        ; Cancel cutter compensation
G64 P0.1                ; Path Blend within .1mm
G0 X108.5 Y108.5  ; Move to center
M109 P235 ; wait for temperature to be reached
G90 ; use absolute coordinates
G21 ; set units to millimeters
G0 Z0.400 F1800.000 A-1.00000
G0 X122.930 Y122.740 F7800.000
G0 F1800.000 A0.00000
G1 X122.740 Y122.930 F540.000 A0.01086
G1 X122.130 Y123.460 A0.04352
G1 X121.450 Y123.900 A0.07625
G1 X120.720 Y124.270 A0.10932
G1 X120.220 Y124.460 A0.13094
G1 X119.440 Y124.670 A0.16358
G1 X119.170 Y124.720 A0.17468
G1 X118.360 Y124.800 A0.20758
G1 X98.630 Y124.810 A1.00493
G1 X98.090 Y124.770 A1.02681
G1 X97.560 Y124.680 A1.04854
G1 X97.030 Y124.550 A1.07059
G1 X96.520 Y124.380 A1.09231
G1 X96.020 Y124.170 A1.11423
G1 X95.540 Y123.920 A1.13610
G1 X95.090 Y123.630 A1.15774
G1 X94.450 Y123.130 A1.19056
G1 X94.250 Y122.940 A1.20171
G1 X93.700 Y122.350 A1.23431
G1 X93.530 Y122.130 A1.24554
G1 X93.230 Y121.690 A1.26706
G1 X92.830 Y120.980 A1.30000
G1 X92.530 Y120.230 A1.33264
G1 X92.380 Y119.710 A1.35451
G1 X92.230 Y118.910 A1.38741
G1 X92.190 Y118.370 A1.40929
G1 X92.190 Y98.630 A2.20705
G1 X92.230 Y98.090 A2.22893
G1 X92.320 Y97.560 A2.25065
G1 X92.450 Y97.030 A2.27271
G1 X92.620 Y96.520 A2.29443
G1 X92.830 Y96.020 A2.31635
G1 X92.950 Y95.780 A2.32719
G1 X93.370 Y95.090 A2.35984
G1 X93.700 Y94.650 A2.38207
G1 X94.060 Y94.250 A2.40381
G1 X94.450 Y93.870 A2.42582
G1 X95.090 Y93.370 A2.45864
G1 X95.780 Y92.950 A2.49129
G1 X96.020 Y92.830 A2.50213
G1 X96.770 Y92.530 A2.53477
G1 X97.290 Y92.380 A2.55665
G1 X98.090 Y92.230 A2.58954
G1 X98.630 Y92.190 A2.61142
G1 X118.360 Y92.190 A3.40877
G1 X118.900 Y92.230 A3.43066
G1 X119.430 Y92.320 A3.45238
G1 X119.960 Y92.450 A3.47444
G1 X120.470 Y92.620 A3.49616
G1 X120.970 Y92.830 A3.51808
G1 X121.210 Y92.950 A3.52892
G1 X121.900 Y93.370 A3.56157
G1 X122.340 Y93.700 A3.58379
G1 X122.740 Y94.060 A3.60554
G1 X123.120 Y94.450 A3.62755
G1 X123.620 Y95.090 A3.66037
G1 X124.040 Y95.780 A3.69302
G1 X124.160 Y96.020 A3.70386
G1 X124.460 Y96.770 A3.73650
G1 X124.610 Y97.290 A3.75838
G1 X124.760 Y98.090 A3.79127
G1 X124.800 Y98.630 A3.81315
G1 X124.800 Y118.360 A4.61050
G1 X124.760 Y118.900 A4.63239
G1 X124.670 Y119.430 A4.65411
G1 X124.540 Y119.960 A4.67617
G1 X124.370 Y120.470 A4.69789
G1 X124.160 Y120.970 A4.71981
G1 X123.910 Y121.450 A4.74168
G1 X123.620 Y121.900 A4.76332
G1 X123.290 Y122.340 A4.78554
G1 X123.004 Y122.662 A4.80296
G1 X122.930 Y122.740 A4.80729
G0 X116.672 Y100.328 F1800.000 A3.80729
G0 A4.80729
G1 X116.672 Y116.672 F540.000 A5.46778
G1 X100.328 Y116.672 A6.12826
G1 X100.328 Y100.328 A6.78875
G1 X116.565 Y100.328 A7.44491
G1 X116.672 Y100.328 A7.44924
G0 X117.386 Y99.614 F7800.000
G1 X117.386 Y117.386 F540.000 A8.16745
G1 X99.614 Y117.386 A8.88566
G1 X99.614 Y99.614 A9.60387
G1 X117.279 Y99.614 A10.31775
G1 X117.386 Y99.614 A10.32207
G0 X118.100 Y98.900 F7800.000
G1 X118.100 Y118.100 F540.000 A11.09801
G1 X98.900 Y118.100 A11.87394
G1 X98.900 Y98.900 A12.64987
G1 X117.993 Y98.900 A13.42147
G1 X118.100 Y98.900 A13.42580
G0 X117.743 Y99.518 F7800.000
G0 X116.185 Y101.270 F1800.000 A12.42580
G0 A13.42580
G1 X115.730 Y100.815 F1080.000 A13.45227
G1 X114.702 Y100.815 A13.49460
G1 X116.185 Y102.298 A13.58095
G1 X116.185 Y103.327 A13.62328
G1 X113.673 Y100.815 A13.76950
G1 X112.644 Y100.815 A13.81183
G1 X116.185 Y104.356 A14.01792
G1 X116.185 Y105.384 A14.06026
G1 X111.616 Y100.815 A14.32622
G1 X110.587 Y100.815 A14.36856
G1 X116.185 Y106.413 A14.69440
G1 X116.185 Y107.442 A14.73674
G1 X109.558 Y100.815 A15.12245
G1 X108.530 Y100.815 A15.16479
G1 X116.185 Y108.470 A15.61038
G1 X116.185 Y109.499 A15.65271
G1 X107.501 Y100.815 A16.15817
G1 X106.473 Y100.815 A16.20052
G1 X116.185 Y110.527 A16.76585
G1 X116.185 Y111.556 A16.80819
G1 X105.444 Y100.815 A17.43340
G1 X104.415 Y100.815 A17.47574
G1 X116.185 Y112.585 A18.16083
G1 X116.185 Y113.613 A18.20316
G1 X103.387 Y100.815 A18.94812
G1 X102.358 Y100.815 A18.99046
G1 X116.185 Y114.642 A19.79530
G1 X116.185 Y115.671 A19.83764
G1 X101.329 Y100.815 A20.70234
G1 X100.815 Y101.329 A20.73228
G1 X115.671 Y116.185 A21.59699
G1 X114.642 Y116.185 A21.63933
G1 X100.815 Y102.358 A22.44417
G1 X100.815 Y103.387 A22.48651
G1 X113.613 Y116.185 A23.23146
G1 X112.585 Y116.185 A23.27380
G1 X100.815 Y104.415 A23.95889
G1 X100.815 Y105.444 A24.00123
G1 X111.556 Y116.185 A24.62644
G1 X110.527 Y116.185 A24.66877
G1 X100.815 Y106.473 A25.23411
G1 X100.815 Y107.501 A25.27645
G1 X109.499 Y116.185 A25.78191
G1 X108.470 Y116.185 A25.82425
G1 X100.815 Y108.530 A26.26984
G1 X100.815 Y109.558 A26.31218
G1 X107.442 Y116.185 A26.69789
G1 X106.413 Y116.185 A26.74023
G1 X100.815 Y110.587 A27.06607
G1 X100.815 Y111.616 A27.10841
G1 X105.384 Y116.185 A27.37437
G1 X104.356 Y116.185 A27.41670
G1 X100.815 Y112.644 A27.62279
G1 X100.815 Y113.673 A27.66513
G1 X103.327 Y116.185 A27.81135
G1 X102.298 Y116.185 A27.85368
G1 X100.815 Y114.702 A27.94002
G1 X100.815 Y115.730 A27.98236
G1 X101.270 Y116.185 A28.00883
M104 P230 ; set temperature
M140 P110 ; set bed temperature
G0 Z0.700 F1800.000 A27.00883
G0 X99.550 Y99.550 F7800.000
G0 F1800.000 A28.00883
G1 X117.450 Y99.550 F1800.000 A28.32706
G1 X117.450 Y117.450 A28.64529
G1 X99.550 Y117.450 A28.96352
G1 X99.550 Y99.613 A29.28063
G1 X99.550 Y99.550 A29.28175
G0 X99.131 Y99.600 F7800.000
G1 X99.131 Y99.131 F1800.000 A29.29009
G1 X117.869 Y99.131 A29.62321
G1 X117.869 Y117.869 A29.95633
G1 X99.131 Y117.869 A30.28946
G1 X99.131 Y99.663 A30.61312
G1 X99.131 Y99.600 A30.61424
G0 X98.712 Y99.600 F7800.000
G1 X98.712 Y98.712 F1800.000 A30.63003
G1 X118.288 Y98.712 A30.97804
G1 X118.288 Y118.288 A31.32606
G1 X98.712 Y118.288 A31.67408
G1 X98.712 Y99.663 A32.00519
G1 X98.712 Y99.600 A32.00631
G0 X99.075 Y99.391 F7800.000
G0 X100.102 Y99.835
G1 X99.835 Y100.102 F3600.000 A32.01309
G1 X99.835 Y100.701 A32.02384
G1 X100.701 Y99.835 A32.04584
G1 X101.299 Y99.835 A32.05659
G1 X99.835 Y101.299 A32.09379
G1 X99.835 Y101.898 A32.10455
G1 X101.898 Y99.835 A32.15697
G1 X102.497 Y99.835 A32.16772
G1 X99.835 Y102.497 A32.23535
G1 X99.835 Y103.095 A32.24611
G1 X103.095 Y99.835 A32.32895
G1 X103.694 Y99.835 A32.33971
G1 X99.835 Y103.694 A32.43776
G1 X99.835 Y104.293 A32.44851
G1 X104.293 Y99.835 A32.56178
G1 X104.892 Y99.835 A32.57254
G1 X99.835 Y104.892 A32.70101
G1 X99.835 Y105.490 A32.71177
G1 X105.490 Y99.835 A32.85546
G1 X106.089 Y99.835 A32.86622
G1 X99.835 Y106.089 A33.02512
G1 X99.835 Y106.688 A33.03588
G1 X106.688 Y99.835 A33.20999
G1 X107.286 Y99.835 A33.22075
G1 X99.835 Y107.286 A33.41007
G1 X99.835 Y107.885 A33.42083
G1 X107.885 Y99.835 A33.62537
G1 X108.484 Y99.835 A33.63612
G1 X99.835 Y108.484 A33.85587
G1 X99.835 Y109.082 A33.86663
G1 X109.082 Y99.835 A34.10159
G1 X109.681 Y99.835 A34.11235
G1 X99.835 Y109.681 A34.36253
G1 X99.835 Y110.280 A34.37328
G1 X110.280 Y99.835 A34.63867
G1 X110.878 Y99.835 A34.64943
G1 X99.835 Y110.878 A34.93003
G1 X99.835 Y111.477 A34.94078
G1 X111.477 Y99.835 A35.23660
G1 X112.076 Y99.835 A35.24735
G1 X99.835 Y112.076 A35.55838
G1 X99.835 Y112.675 A35.56914
G1 X112.675 Y99.835 A35.89537
G1 X113.273 Y99.835 A35.90613
G1 X99.835 Y113.273 A36.24758
G1 X99.835 Y113.872 A36.25834
G1 X113.872 Y99.835 A36.61500
G1 X114.471 Y99.835 A36.62575
G1 X99.835 Y114.471 A36.99763
G1 X99.835 Y115.069 A37.00839
G1 X115.069 Y99.835 A37.39547
G1 X115.668 Y99.835 A37.40623
G1 X99.835 Y115.668 A37.80853
G1 X99.835 Y116.267 A37.81929
G1 X116.267 Y99.835 A38.23680
G1 X116.865 Y99.835 A38.24755
G1 X99.835 Y116.865 A38.68028
G1 X100.135 Y117.165 A38.68788
G1 X117.165 Y100.135 A39.12061
G1 X117.165 Y100.733 A39.13136
G1 X100.733 Y117.165 A39.54887
G1 X101.332 Y117.165 A39.55963
G1 X117.165 Y101.332 A39.96193
G1 X117.165 Y101.931 A39.97269
G1 X101.931 Y117.165 A40.35977
G1 X102.529 Y117.165 A40.37053
G1 X117.165 Y102.529 A40.74240
G1 X117.165 Y103.128 A40.75316
G1 X103.128 Y117.165 A41.10982
G1 X103.727 Y117.165 A41.12058
G1 X117.165 Y103.727 A41.46203
G1 X117.165 Y104.325 A41.47278
G1 X104.325 Y117.165 A41.79902
G1 X104.924 Y117.165 A41.80978
G1 X117.165 Y104.924 A42.12081
G1 X117.165 Y105.523 A42.13156
G1 X105.523 Y117.165 A42.42737
G1 X106.122 Y117.165 A42.43813
G1 X117.165 Y106.122 A42.71873
G1 X117.165 Y106.720 A42.72949
G1 X106.720 Y117.165 A42.99488
G1 X107.319 Y117.165 A43.00563
G1 X117.165 Y107.319 A43.25581
G1 X117.165 Y107.918 A43.26657
G1 X107.918 Y117.165 A43.50153
G1 X108.516 Y117.165 A43.51228
G1 X117.165 Y108.516 A43.73204
G1 X117.165 Y109.115 A43.74279
G1 X109.115 Y117.165 A43.94733
G1 X109.714 Y117.165 A43.95809
G1 X117.165 Y109.714 A44.14741
G1 X117.165 Y110.312 A44.15817
G1 X110.312 Y117.165 A44.33228
G1 X110.911 Y117.165 A44.34304
G1 X117.165 Y110.911 A44.50194
G1 X117.165 Y111.510 A44.51270
G1 X111.510 Y117.165 A44.65639
G1 X112.108 Y117.165 A44.66715
G1 X117.165 Y112.108 A44.79562
G1 X117.165 Y112.707 A44.80638
G1 X112.707 Y117.165 A44.91965
G1 X113.306 Y117.165 A44.93040
G1 X117.165 Y113.306 A45.02845
G1 X117.165 Y113.905 A45.03921
G1 X113.905 Y117.165 A45.12205
G1 X114.503 Y117.165 A45.13281
G1 X117.165 Y114.503 A45.20044
G1 X117.165 Y115.102 A45.21119
G1 X115.102 Y117.165 A45.26361
G1 X115.701 Y117.165 A45.27437
G1 X117.165 Y115.701 A45.31157
G1 X117.165 Y116.299 A45.32232
G1 X116.299 Y117.165 A45.34432
G1 X116.898 Y117.165 A45.35507
G1 X117.165 Y116.898 A45.36185
G0 Z1.000 F1800.000 A44.36185
G0 X117.450 Y117.450 F7800.000
G0 F1800.000 A45.36185
G1 X99.550 Y117.450 F1800.000 A45.68008
G1 X99.550 Y99.550 A45.99831
G1 X117.450 Y99.550 A46.31654
G1 X117.450 Y117.387 A46.63365
G1 X117.450 Y117.450 A46.63477
G0 X117.869 Y117.869 F7800.000
G1 X99.131 Y117.869 F1800.000 A46.96789
G1 X99.131 Y99.131 A47.30102
G1 X117.869 Y99.131 A47.63414
G1 X117.869 Y117.806 A47.96615
G1 X117.869 Y117.869 A47.96726
G0 X118.288 Y118.288 F7800.000
G1 X98.712 Y118.288 F1800.000 A48.31528
G1 X98.712 Y98.712 A48.66330
G1 X118.288 Y98.712 A49.01132
G1 X118.288 Y118.225 A49.35822
G1 X118.288 Y118.288 A49.35933
G0 X117.925 Y118.079 F7800.000
G0 X100.102 Y117.165 F1800.000 A48.35933
G0 A49.35933
G1 X99.835 Y116.898 F3600.000 A49.36611
G1 X99.835 Y116.299 A49.37687
G1 X100.701 Y117.165 A49.39886
G1 X101.299 Y117.165 A49.40961
G1 X99.835 Y115.701 A49.44682
G1 X99.835 Y115.102 A49.45757
G1 X101.898 Y117.165 A49.50999
G1 X102.497 Y117.165 A49.52075
G1 X99.835 Y114.503 A49.58838
G1 X99.835 Y113.905 A49.59913
G1 X103.095 Y117.165 A49.68197
G1 X103.694 Y117.165 A49.69273
G1 X99.835 Y113.306 A49.79078
G1 X99.835 Y112.707 A49.80154
G1 X104.293 Y117.165 A49.91480
G1 X104.892 Y117.165 A49.92556
G1 X99.835 Y112.108 A50.05404
G1 X99.835 Y111.510 A50.06480
G1 X105.490 Y117.165 A50.20848
G1 X106.089 Y117.165 A50.21924
G1 X99.835 Y110.911 A50.37814
G1 X99.835 Y110.312 A50.38890
G1 X106.688 Y117.165 A50.56301
G1 X107.286 Y117.165 A50.57377
G1 X99.835 Y109.714 A50.76310
G1 X99.835 Y109.115 A50.77385
G1 X107.885 Y117.165 A50.97839
G1 X108.484 Y117.165 A50.98915
G1 X99.835 Y108.516 A51.20890
G1 X99.835 Y107.918 A51.21965
G1 X109.082 Y117.165 A51.45462
G1 X109.681 Y117.165 A51.46538
G1 X99.835 Y107.319 A51.71555
G1 X99.835 Y106.720 A51.72631
G1 X110.280 Y117.165 A51.99170
G1 X110.878 Y117.165 A52.00245
G1 X99.835 Y106.122 A52.28305
G1 X99.835 Y105.523 A52.29381
G1 X111.477 Y117.165 A52.58962
G1 X112.076 Y117.165 A52.60038
G1 X99.835 Y104.924 A52.91140
G1 X99.835 Y104.325 A52.92216
G1 X112.675 Y117.165 A53.24840
G1 X113.273 Y117.165 A53.25915
G1 X99.835 Y103.727 A53.60060
G1 X99.835 Y103.128 A53.61136
G1 X113.872 Y117.165 A53.96802
G1 X114.471 Y117.165 A53.97878
G1 X99.835 Y102.529 A54.35065
G1 X99.835 Y101.931 A54.36141
G1 X115.069 Y117.165 A54.74850
G1 X115.668 Y117.165 A54.75925
G1 X99.835 Y101.332 A55.16155
G1 X99.835 Y100.733 A55.17231
G1 X116.267 Y117.165 A55.58982
G1 X116.865 Y117.165 A55.60058
G1 X99.835 Y100.135 A56.03330
G1 X100.135 Y99.835 A56.04091
G1 X117.165 Y116.865 A56.47363
G1 X117.165 Y116.267 A56.48439
G1 X100.733 Y99.835 A56.90190
G1 X101.332 Y99.835 A56.91265
G1 X117.165 Y115.668 A57.31495
G1 X117.165 Y115.069 A57.32571
G1 X101.931 Y99.835 A57.71280
G1 X102.529 Y99.835 A57.72355
G1 X117.165 Y114.471 A58.09543
G1 X117.165 Y113.872 A58.10619
G1 X103.128 Y99.835 A58.46285
G1 X103.727 Y99.835 A58.47360
G1 X117.165 Y113.273 A58.81505
G1 X117.165 Y112.675 A58.82581
G1 X104.325 Y99.835 A59.15205
G1 X104.924 Y99.835 A59.16281
G1 X117.165 Y112.076 A59.47383
G1 X117.165 Y111.477 A59.48459
G1 X105.523 Y99.835 A59.78040
G1 X106.122 Y99.835 A59.79116
G1 X117.165 Y110.878 A60.07176
G1 X117.165 Y110.280 A60.08251
G1 X106.720 Y99.835 A60.34790
G1 X107.319 Y99.835 A60.35866
G1 X117.165 Y109.681 A60.60883
G1 X117.165 Y109.082 A60.61959
G1 X107.918 Y99.835 A60.85455
G1 X108.516 Y99.835 A60.86531
G1 X117.165 Y108.484 A61.08506
G1 X117.165 Y107.885 A61.09582
G1 X109.115 Y99.835 A61.30035
G1 X109.714 Y99.835 A61.31111
G1 X117.165 Y107.286 A61.50044
G1 X117.165 Y106.688 A61.51119
G1 X110.312 Y99.835 A61.68531
G1 X110.911 Y99.835 A61.69607
G1 X117.165 Y106.089 A61.85497
G1 X117.165 Y105.490 A61.86572
G1 X111.510 Y99.835 A62.00941
G1 X112.108 Y99.835 A62.02017
G1 X117.165 Y104.892 A62.14865
G1 X117.165 Y104.293 A62.15941
G1 X112.707 Y99.835 A62.27267
G1 X113.306 Y99.835 A62.28343
G1 X117.165 Y103.694 A62.38148
G1 X117.165 Y103.095 A62.39224
G1 X113.905 Y99.835 A62.47508
G1 X114.503 Y99.835 A62.48583
G1 X117.165 Y102.497 A62.55346
G1 X117.165 Y101.898 A62.56422
G1 X115.102 Y99.835 A62.61663
G1 X115.701 Y99.835 A62.62739
G1 X117.165 Y101.299 A62.66459
G1 X117.165 Y100.701 A62.67535
G1 X116.299 Y99.835 A62.69734
G1 X116.898 Y99.835 A62.70810
G1 X117.165 Y100.102 A62.71488
G0 Z1.300 F1800.000 A61.71488
G0 X117.450 Y99.550 F7800.000
G0 F1800.000 A62.71488
G1 X117.450 Y117.450 F1800.000 A63.03311
G1 X99.550 Y117.450 A63.35134
G1 X99.550 Y99.550 A63.66957
G1 X117.387 Y99.550 A63.98668
G1 X117.450 Y99.550 A63.98780
G0 X117.869 Y99.131 F7800.000
G1 X117.869 Y117.869 F1800.000 A64.32092
G1 X99.131 Y117.869 A64.65404
G1 X99.131 Y99.131 A64.98717
G1 X117.806 Y99.131 A65.31917
G1 X117.869 Y99.131 A65.32029
G0 X118.288 Y98.712 F7800.000
G1 X118.288 Y118.288 F1800.000 A65.66831
G1 X98.712 Y118.288 A66.01632
G1 X98.712 Y98.712 A66.36434
G1 X118.225 Y98.712 A66.71124
G1 X118.288 Y98.712 A66.71236
G0 X118.079 Y99.075 F7800.000
G0 X117.165 Y116.898 F1800.000 A65.71236
G0 A66.71236
G1 X116.898 Y117.165 F3600.000 A66.71906
G1 X115.417 Y117.165 A66.74539
G1 X117.165 Y115.417 A66.78933
G1 X117.165 Y113.936 A66.81566
G1 X113.936 Y117.165 A66.89683
G1 X112.455 Y117.165 A66.92316
G1 X117.165 Y112.455 A67.04157
G1 X117.165 Y110.974 A67.06789
G1 X110.974 Y117.165 A67.22354
G1 X109.493 Y117.165 A67.24986
G1 X117.165 Y109.493 A67.44274
G1 X117.165 Y108.012 A67.46907
G1 X108.012 Y117.165 A67.69917
G1 X106.531 Y117.165 A67.72550
G1 X117.165 Y106.531 A67.99285
G1 X117.165 Y105.050 A68.01917
G1 X105.050 Y117.165 A68.32375
G1 X103.569 Y117.165 A68.35008
G1 X117.165 Y103.569 A68.69189
G1 X117.165 Y102.088 A68.71822
G1 X102.088 Y117.165 A69.09726
G1 X100.607 Y117.165 A69.12359
G1 X117.165 Y100.607 A69.53987
G1 X116.456 Y99.835 A69.55850
